X: 362
T:Leal schray tante
N: Derived from Jos2821-Leal_schray_tante.krn
C: Josquin des Prez
%%abc-version 2.0
%%abcx-abcm2ps-target-version 5.9.1 (29 Sep 2008)
%%abc-creator hum2abc beta
%%abcx-conversion-date 2019/02/12 16:15:54
%%abc-edited-by Jesse Rodin
%%abc-edited-by Will Watson 19/08/2011
%%abcx-initial-encoding-date 2011/08/19/
%%humdrum-veritas 396114673
%%humdrum-veritas-data 1785574824
%%linebreak <none>
%%barnumbers 0
L: 1/4
M: 2/1
Q: 1/2=120
%%staves [1 2 3 4]
V: 1 clef=treble
V: 2 clef=treble-8
V: 3 clef=treble-8
V: 4 clef=bass
K: C
[V:1] z4z2E2 | 
[V:2] E4G2A2 | 
[V:3] z8 | 
[V:4] z8 | 
[V:1] G2A2B2c2- | 
[V:2] B2c2d2e2 | 
[V:3] z8 | 
[V:4] z4z2A,,2 | 
[V:1] c2c2B2A2 | 
[V:2] A4G2c2 | 
[V:3] z2E2G2A2 | 
[V:4] C,3D,E,2F,2 | 
[V:1] d2c2A2c2- | 
[V:2] B2e2f2e2- | 
[V:3] B2c2d2e2 | 
[V:4] G,2A,2D,2C,2 | 
[V:1] cBA4^G2 | 
[V:2] ed/c/d2e4 | 
[V:3] A4B4 | 
[V:4] F,4E,4 | 
[V:1] A8 | 
[V:2] z4z2d2- | 
[V:3] A4z4 | 
[V:4] A,,4z4 | 
[V:1] z2A4A2 | 
[V:2] d2d2c2A2 | 
[V:3] z8 | 
[V:4] z8 | 
[V:1] G2E2F2G2 | 
[V:2] B2c2d4- | 
[V:3] z8 | 
[V:4] z8 | 
[V:1] A8 | 
[V:2] d4z4 | 
[V:3] z4z2A2- | 
[V:4] z2D,4D,2 | 
[V:1] z8 | 
[V:2] z8 | 
[V:3] A2A2G2E2 | 
[V:4] C,2A,,2B,,2C,2 | 
[V:1] D4C4 | 
[V:2] A8 | 
[V:3] F2G2A4 | 
[V:4] D,4A,,4 | 
[V:1] F6G2 | 
[V:2] F4_B4 | 
[V:3] D4z2E2 | 
[V:4] _B,,6A,,G,, | 
[V:1] A3Bc4 | 
[V:2] A4z2A2 | 
[V:3] F3GA4 | 
[V:4] F,,4z2F,,2 | 
[V:1] B2A4GF | 
[V:2] G2E2e2d2 | 
[V:3] B2c4BA | 
[V:4] G,,2A,,4B,,2 | 
[V:1] E4A4 | 
[V:2] e4A4 | 
[V:3] G4z2F2 | 
[V:4] C,6D,2 | 
[V:1] G2E2F2E2- | 
[V:2] z8 | 
[V:3] G2A2F2G2 | 
[V:4] E,2C,2D,2E,2 | 
[V:1] E2DCD4 | 
[V:2] z2F4G2 | 
[V:3] A4D4 | 
[V:4] A,,4_B,,4 | 
[V:1] C2E3DD2- | 
[V:2] A2E2G4 | 
[V:3] E2C2D4 | 
[V:4] A,,4G,,2_B,,2 | 
[V:1] D2^C2D4- | 
[V:2] A4D2d2 | 
[V:3] E4z4 | 
[V:4] A,,4D,4 | 
[V:1] D4z2A2 | 
[V:2] d2f4ed | 
[V:3] z8 | 
[V:4] z2D,2D,2F,2- | 
[V:1] A2c4BA | 
[V:2] c3de2A2 | 
[V:3] z2A2A2c2- | 
[V:4] F,2E,D,C,3D, | 
[V:1] G2A2B2E2- | 
[V:2] e8- | 
[V:3] c2BAG2A2 | 
[V:4] E,2A,,2z4 | 
[V:1] EFGAB2A2 | 
[V:2] e4z2c2- | 
[V:3] B2E2z2A2- | 
[V:4] E,6F,2- | 
[V:1] z2c3Gc2 | 
[V:2] cdefg2e2 | 
[V:3] ABcde4 | 
[V:4] F,2E,D,C,4 | 
[V:1] B2A4^G2 | 
[V:2] f4e4 | 
[V:3] d3cB4 | 
[V:4] D,4E,4 | 
[V:1] A8 | 
[V:2] z2A2c3d | 
[V:3] A4z2A2 | 
[V:4] A,,8- | 
[V:1] z2A,2C3D | 
[V:2] e4z4 | 
[V:3] c3de4 | 
[V:4] A,,4z2A,,2 | 
[V:1] E4z4 | 
[V:2] z2E2G2A2 | 
[V:3] z8 | 
[V:4] C,3D,E,2F,2 | 
[V:1] z8 | 
[V:2] B2c2d2e2 | 
[V:3] z8 | 
[V:4] G,2A,2D,2C,2 | 
[V:1] z8 | 
[V:2] A2d4^c2 | 
[V:3] z8 | 
[V:4] F,4E,4 | 
[V:1] z2A,2C3D | 
[V:2] d4z4 | 
[V:3] z4z2A,2 | 
[V:4] D,4z4 | 
[V:1] E2F2G2A2 | 
[V:2] z8 | 
[V:3] C2D2E2F2 | 
[V:4] z8 | 
[V:1] D2C2F2E2- | 
[V:2] z4F2G2 | 
[V:3] G2A2D2C2 | 
[V:4] z2C,2D,2E,2 | 
[V:1] EDD4^C2 | 
[V:2] A2D2A4 | 
[V:3] F2G2E4 | 
[V:4] A,,2G,,2A,,4 | 
[V:1] D8 |]  
[V:2] A8 |]  
[V:3] D8 |]  
[V:4] D,8 |]  



